lib/flags/s/678.svg

<svg xmlns="http://www.w3.org/2000/svg" fill="none" viewBox="0 0 16 12"><mask id="678_svg__a" width="16" height="12" x="0" y="0" mask-type="alpha" maskUnits="userSpaceOnUse"><path fill="#fff" d="M0 0H16V12H0z"/></mask><g fill-rule="evenodd" clip-rule="evenodd" mask="url(#678_svg__a)"><path fill="#FBCD17" d="M0 0V12H16V0H0Z"/><path fill="#73BE4A" d="M0 0V4H16V0H0zM0 8V12H16V8H0z"/><path fill="#C51918" d="M0 0V12L5 6L0 0Z"/><path fill="#272727" d="M8.5009 6.93534 7.56556 7.5 7.77891 6.39812 7 5.57347 8.05468 5.52888 8.5009 4.5 8.94711 5.52888H10L9.22289 6.39812 9.45685 7.5 8.5009 6.93534zM12.5009 6.93534 11.5656 7.5 11.7789 6.39812 11 5.57347 12.0547 5.52888 12.5009 4.5 12.9471 5.52888H14L13.2229 6.39812 13.4568 7.5 12.5009 6.93534z"/></g></svg>

<svg xmlns="http://www.w3.org/2000/svg" fill="none" viewBox="0 0 16 12"><mask id="678_svg__a" width="16" height="12" x="0" y="0" maskUnits="userSpaceOnUse"><path fill="#fff" d="M0 0h16v12H0z"/></mask><g fill-rule="evenodd" clip-rule="evenodd" mask="url(#678_svg__a)"><path fill="#FBCD17" d="M0 0v12h16V0H0z"/><path fill="#73BE4A" d="M0 0v4h16V0H0zm0 8v4h16V8H0z"/><path fill="#C51918" d="M0 0v12l5-6-5-6z"/><path fill="#272727" d="M8.5 6.935l-.934.565.213-1.102L7 5.573l1.055-.044L8.5 4.5l.446 1.029H10l-.777.87.234 1.101-.956-.565zm4 0l-.934.565.213-1.102L11 5.573l1.055-.044L12.5 4.5l.446 1.029H14l-.777.87.234 1.101-.956-.565z"/></g></svg>
